src/images/partners/sync.svg

<svg width="131" height="56" viewBox="0 0 131 56" fill="none" xmlns="http://www.w3.org/2000/svg">
<path d="M75.1406 32.0469C75.1406 31.6406 75.0781 31.276 74.9531 30.9531C74.8385 30.6198 74.6198 30.3177 74.2969 30.0469C73.974 29.7656 73.5208 29.4896 72.9375 29.2188C72.3542 28.9479 71.599 28.6667 70.6719 28.375C69.6406 28.0417 68.6615 27.6667 67.7344 27.25C66.8177 26.8333 66.0052 26.349 65.2969 25.7969C64.599 25.2344 64.0469 24.5833 63.6406 23.8438C63.2448 23.1042 63.0469 22.2448 63.0469 21.2656C63.0469 20.3177 63.2552 19.4583 63.6719 18.6875C64.0885 17.9062 64.6719 17.2396 65.4219 16.6875C66.1719 16.125 67.0573 15.6927 68.0781 15.3906C69.1094 15.0885 70.2396 14.9375 71.4688 14.9375C73.1458 14.9375 74.6094 15.2396 75.8594 15.8438C77.1094 16.4479 78.0781 17.276 78.7656 18.3281C79.4635 19.3802 79.8125 20.5833 79.8125 21.9375H75.1562C75.1562 21.2708 75.0156 20.6875 74.7344 20.1875C74.4635 19.6771 74.0469 19.276 73.4844 18.9844C72.9323 18.6927 72.2344 18.5469 71.3906 18.5469C70.5781 18.5469 69.901 18.6719 69.3594 18.9219C68.8177 19.1615 68.4115 19.4896 68.1406 19.9062C67.8698 20.3125 67.7344 20.7708 67.7344 21.2812C67.7344 21.6667 67.8281 22.0156 68.0156 22.3281C68.2135 22.6406 68.5052 22.9323 68.8906 23.2031C69.276 23.474 69.75 23.7292 70.3125 23.9688C70.875 24.2083 71.526 24.4427 72.2656 24.6719C73.5052 25.0469 74.5938 25.4688 75.5312 25.9375C76.4792 26.4062 77.2708 26.9323 77.9062 27.5156C78.5417 28.099 79.0208 28.7604 79.3438 29.5C79.6667 30.2396 79.8281 31.0781 79.8281 32.0156C79.8281 33.0052 79.6354 33.8906 79.25 34.6719C78.8646 35.4531 78.3073 36.1146 77.5781 36.6562C76.849 37.1979 75.9792 37.6094 74.9688 37.8906C73.9583 38.1719 72.8281 38.3125 71.5781 38.3125C70.4531 38.3125 69.3438 38.1667 68.25 37.875C67.1562 37.5729 66.1615 37.1198 65.2656 36.5156C64.3802 35.9115 63.6719 35.1406 63.1406 34.2031C62.6094 33.2656 62.3438 32.1562 62.3438 30.875H67.0469C67.0469 31.5833 67.1562 32.1823 67.375 32.6719C67.5938 33.1615 67.901 33.5573 68.2969 33.8594C68.7031 34.1615 69.1823 34.3802 69.7344 34.5156C70.2969 34.651 70.9115 34.7188 71.5781 34.7188C72.3906 34.7188 73.0573 34.6042 73.5781 34.375C74.1094 34.1458 74.5 33.8281 74.75 33.4219C75.0104 33.0156 75.1406 32.5573 75.1406 32.0469Z" fill="#27284A"/>
<path d="M87.75 36.0938L92.2344 21.0938H97.0625L90.2656 40.5469C90.1198 40.974 89.9219 41.4323 89.6719 41.9219C89.4323 42.4115 89.1042 42.875 88.6875 43.3125C88.2812 43.7604 87.7656 44.125 87.1406 44.4062C86.526 44.6875 85.7708 44.8281 84.875 44.8281C84.4479 44.8281 84.099 44.8021 83.8281 44.75C83.5573 44.6979 83.2344 44.625 82.8594 44.5312V41.2344C82.974 41.2344 83.0938 41.2344 83.2188 41.2344C83.3438 41.2448 83.4635 41.25 83.5781 41.25C84.1719 41.25 84.6562 41.1823 85.0312 41.0469C85.4062 40.9115 85.7083 40.7031 85.9375 40.4219C86.1667 40.151 86.349 39.7969 86.4844 39.3594L87.75 36.0938ZM85.875 21.0938L89.5469 33.3438L90.1875 38.1094L87.125 38.4375L81.0469 21.0938H85.875Z" fill="#27284A"/>
<path d="M103.266 24.7031V38H98.7656V21.0938H102.984L103.266 24.7031ZM102.609 28.9531H101.391C101.391 27.7031 101.552 26.5781 101.875 25.5781C102.198 24.5677 102.651 23.7083 103.234 23C103.818 22.2812 104.51 21.7344 105.312 21.3594C106.125 20.974 107.031 20.7812 108.031 20.7812C108.823 20.7812 109.547 20.8958 110.203 21.125C110.859 21.3542 111.422 21.7188 111.891 22.2188C112.37 22.7188 112.734 23.3802 112.984 24.2031C113.245 25.026 113.375 26.0312 113.375 27.2188V38H108.844V27.2031C108.844 26.4531 108.74 25.8698 108.531 25.4531C108.323 25.0365 108.016 24.7448 107.609 24.5781C107.214 24.401 106.724 24.3125 106.141 24.3125C105.536 24.3125 105.01 24.4323 104.562 24.6719C104.125 24.9115 103.76 25.2448 103.469 25.6719C103.188 26.0885 102.974 26.5781 102.828 27.1406C102.682 27.7031 102.609 28.3073 102.609 28.9531Z" fill="#27284A"/>
<path d="M123.781 34.7969C124.333 34.7969 124.823 34.6927 125.25 34.4844C125.677 34.2656 126.01 33.9635 126.25 33.5781C126.5 33.1823 126.63 32.7188 126.641 32.1875H130.875C130.865 33.375 130.547 34.4323 129.922 35.3594C129.297 36.276 128.458 37 127.406 37.5312C126.354 38.0521 125.177 38.3125 123.875 38.3125C122.562 38.3125 121.417 38.0938 120.438 37.6562C119.469 37.2188 118.661 36.6146 118.016 35.8438C117.37 35.0625 116.885 34.1562 116.562 33.125C116.24 32.0833 116.078 30.9688 116.078 29.7812V29.3281C116.078 28.1302 116.24 27.0156 116.562 25.9844C116.885 24.9427 117.37 24.0365 118.016 23.2656C118.661 22.4844 119.469 21.875 120.438 21.4375C121.406 21 122.542 20.7812 123.844 20.7812C125.229 20.7812 126.443 21.0469 127.484 21.5781C128.536 22.1094 129.359 22.8698 129.953 23.8594C130.557 24.8385 130.865 26 130.875 27.3438H126.641C126.63 26.7812 126.51 26.2708 126.281 25.8125C126.062 25.3542 125.74 24.9896 125.312 24.7188C124.896 24.4375 124.38 24.2969 123.766 24.2969C123.109 24.2969 122.573 24.4375 122.156 24.7188C121.74 24.9896 121.417 25.3646 121.188 25.8438C120.958 26.3125 120.797 26.849 120.703 27.4531C120.62 28.0469 120.578 28.6719 120.578 29.3281V29.7812C120.578 30.4375 120.62 31.0677 120.703 31.6719C120.786 32.276 120.943 32.8125 121.172 33.2812C121.411 33.75 121.74 34.1198 122.156 34.3906C122.573 34.6615 123.115 34.7969 123.781 34.7969Z" fill="#27284A"/>
<g clip-path="url(#clip0_3436_17)">
<path d="M0 14.0048V42.0048L24.2475 56L48.495 42.0048L0 14.0048Z" fill="url(#paint0_linear_3436_17)"/>
<path d="M0 14.0048V42.0048L48.495 14.0048L24.2475 0L0 14.0048Z" fill="url(#paint1_linear_3436_17)"/>
</g>
<defs>
<linearGradient id="paint0_linear_3436_17" x1="9.17058" y1="22.9935" x2="58.5368" y2="85.2156" gradientUnits="userSpaceOnUse">
<stop stop-color="#7D33A9"/>
<stop offset="0.07" stop-color="#A832C4"/>
<stop offset="0.15" stop-color="#CD31DB"/>
<stop offset="0.22" stop-color="#E831EC"/>
<stop offset="0.28" stop-color="#F931F6"/>
<stop offset="0.33" stop-color="#FF31FA"/>
</linearGradient>
<linearGradient id="paint1_linear_3436_17" x1="48.495" y1="21.0024" x2="0" y2="21.0024" gradientUnits="userSpaceOnUse">
<stop stop-color="#531DB5"/>
<stop offset="1" stop-color="#8733FF"/>
</linearGradient>
<clipPath id="clip0_3436_17">
<rect width="48.495" height="56" fill="white"/>
</clipPath>
</defs>
</svg>

<svg width="131" height="56" fill="none" xmlns="http://www.w3.org/2000/svg"><path d="M75.14 32.047c0-.406-.062-.771-.187-1.094-.115-.333-.333-.635-.656-.906-.323-.281-.776-.557-1.36-.828-.583-.271-1.338-.552-2.265-.844a28.657 28.657 0 0 1-2.938-1.125 12.068 12.068 0 0 1-2.437-1.453 6.55 6.55 0 0 1-1.656-1.953c-.396-.74-.594-1.6-.594-2.578 0-.948.208-1.808.625-2.578.416-.782 1-1.448 1.75-2 .75-.563 1.635-.995 2.656-1.297 1.031-.303 2.162-.454 3.39-.454 1.678 0 3.141.303 4.391.907 1.25.604 2.22 1.432 2.907 2.484.697 1.052 1.046 2.255 1.046 3.61h-4.656c0-.667-.14-1.25-.422-1.75-.27-.51-.687-.912-1.25-1.204-.552-.291-1.25-.437-2.093-.437-.813 0-1.49.125-2.032.375-.541.24-.947.568-1.218.984-.271.407-.407.865-.407 1.375 0 .386.094.735.282 1.047.197.313.49.604.875.875s.859.526 1.421.766c.563.24 1.214.474 1.954.703 1.24.375 2.328.797 3.265 1.265.948.47 1.74.995 2.375 1.579a5.87 5.87 0 0 1 1.438 1.984c.323.74.484 1.578.484 2.516 0 .99-.193 1.875-.578 2.656a5.456 5.456 0 0 1-1.672 1.984c-.729.542-1.599.953-2.61 1.235-1.01.28-2.14.422-3.39.422-1.125 0-2.234-.146-3.328-.438a10.108 10.108 0 0 1-2.984-1.36 6.852 6.852 0 0 1-2.125-2.312c-.532-.937-.797-2.047-.797-3.328h4.703c0 .708.11 1.307.328 1.797.219.49.526.885.922 1.187.406.302.885.521 1.437.657a7.873 7.873 0 0 0 1.844.203c.813 0 1.48-.115 2-.344.531-.23.922-.547 1.172-.953.26-.406.39-.865.39-1.375zm12.61 4.047l4.484-15h4.829l-6.797 19.453c-.146.427-.344.885-.594 1.375a5.57 5.57 0 0 1-.984 1.39c-.407.448-.922.813-1.547 1.094-.615.282-1.37.422-2.266.422-.427 0-.776-.026-1.047-.078-.27-.052-.594-.125-.969-.219v-3.297h.36c.125.01.245.016.36.016.593 0 1.077-.068 1.452-.203.375-.136.677-.344.906-.625.23-.271.412-.625.547-1.063l1.266-3.265zm-1.875-15l3.672 12.25.64 4.765-3.062.328-6.078-17.343h4.828zm17.391 3.61V38h-4.5V21.094h4.218l.282 3.61zm-.657 4.25h-1.218c0-1.25.161-2.376.484-3.376.323-1.01.776-1.87 1.359-2.578a5.845 5.845 0 0 1 2.078-1.64c.813-.386 1.719-.579 2.719-.579.792 0 1.516.115 2.172.344.656.23 1.219.594 1.688 1.094.479.5.843 1.161 1.093 1.984.261.823.391 1.828.391 3.016V38h-4.531V27.203c0-.75-.104-1.333-.313-1.75a1.752 1.752 0 0 0-.922-.875c-.395-.177-.885-.265-1.468-.265-.605 0-1.131.12-1.579.359-.437.24-.802.573-1.093 1a4.729 4.729 0 0 0-.641 1.469 7.195 7.195 0 0 0-.219 1.812zm21.172 5.843c.552 0 1.042-.104 1.469-.313.427-.218.76-.52 1-.906.25-.396.38-.86.391-1.39h4.234c-.01 1.187-.328 2.244-.953 3.171-.625.917-1.464 1.641-2.516 2.172-1.052.521-2.229.782-3.531.782-1.313 0-2.458-.22-3.437-.657a6.7 6.7 0 0 1-2.422-1.812 7.942 7.942 0 0 1-1.454-2.719 11.264 11.264 0 0 1-.484-3.344v-.453c0-1.198.162-2.312.484-3.344.323-1.041.808-1.948 1.454-2.718a6.624 6.624 0 0 1 2.422-1.828c.968-.438 2.104-.657 3.406-.657 1.385 0 2.599.266 3.64.797a5.94 5.94 0 0 1 2.469 2.281c.604.98.912 2.141.922 3.485h-4.234a3.536 3.536 0 0 0-.36-1.532 2.587 2.587 0 0 0-.969-1.093c-.416-.282-.932-.422-1.546-.422-.657 0-1.193.14-1.61.422-.416.27-.739.646-.968 1.125a5.586 5.586 0 0 0-.485 1.61 13.544 13.544 0 0 0-.125 1.874v.453c0 .657.042 1.287.125 1.89.083.605.24 1.142.469 1.61.239.469.568.839.984 1.11.417.27.959.406 1.625.406z" fill="#27284A"/><g clip-path="url(#clip0_3436_17)"><path d="M0 14.005v28L24.247 56l24.248-13.995L0 14.005z" fill="url(#paint0_linear_3436_17)"/><path d="M0 14.005v28l48.495-28L24.248 0 0 14.005z" fill="url(#paint1_linear_3436_17)"/></g><defs><linearGradient id="paint0_linear_3436_17" x1="9.171" y1="22.994" x2="58.537" y2="85.216" gradientUnits="userSpaceOnUse"><stop stop-color="#7D33A9"/><stop offset=".07" stop-color="#A832C4"/><stop offset=".15" stop-color="#CD31DB"/><stop offset=".22" stop-color="#E831EC"/><stop offset=".28" stop-color="#F931F6"/><stop offset=".33" stop-color="#FF31FA"/></linearGradient><linearGradient id="paint1_linear_3436_17" x1="48.495" y1="21.002" x2="0" y2="21.002" gradientUnits="userSpaceOnUse"><stop stop-color="#531DB5"/><stop offset="1" stop-color="#8733FF"/></linearGradient><clipPath id="clip0_3436_17"><path fill="#fff" d="M0 0H48.495V56H0z"/></clipPath></defs></svg>
